#define qcc_eye_width 50
#define qcc_eye_height 50
static unsigned char qcc_eye_bits[] = {
  0x00, 0x00, 0xE0, 0x0F, 0x00, 0x00, 0x00, 0x00, 0x80, 0xFF, 0xFF, 0x01,
  0x00, 0x00, 0x00, 0xF0, 0xFF, 0xFF, 0x0F, 0x00, 0x00, 0x00, 0xFC, 0xFF,
  0xFF, 0x7F, 0x00, 0x00, 0x00, 0xFF, 0x00, 0x00, 0xFF, 0x01, 0x00, 0xC0,
  0x0F, 0x00, 0x00, 0xF0, 0x07, 0x00, 0xF0, 0x01, 0x00, 0x00, 0x80, 0x0F,
  0x00, 0x78, 0x00, 0xFC, 0x3F, 0x00, 0x3C, 0x00, 0x0C, 0x80, 0xFF, 0xFF,
  0x03, 0x70, 0x00, 0x00, 0xF0, 0xF3, 0x8F, 0x0F, 0x00, 0x00, 0x00, 0xFE,
  0xF3, 0x9F, 0x7F, 0x00, 0x00, 0x80, 0xFF, 0xF3, 0x9F, 0xFF, 0x01, 0x00,
  0x80, 0xFF, 0xF3, 0x9F, 0xFF, 0x03, 0x00, 0x00, 0xFE, 0xE3, 0x8F, 0xFF,
  0x01, 0x00, 0x00, 0xF8, 0xC7, 0xC7, 0x7F, 0x00, 0x00, 0x00, 0xF0, 0x0F,
  0xE0, 0x1F, 0x00, 0x00, 0x00, 0xF0, 0x3F, 0xF8, 0x03, 0x00, 0x00, 0x00,
  0xF8, 0xFD, 0x7F, 0x00, 0x00, 0x00, 0x00, 0xFE, 0x81, 0x03, 0x00, 0x00,
  0x00, 0x00, 0xFF, 0x01, 0x00, 0x00, 0x00, 0x00, 0x80, 0xFF, 0x01, 0x00,
  0x00, 0x00, 0x00, 0x80, 0xFF, 0xC1, 0x03, 0x00, 0x18, 0x00, 0x00, 0xF0,
  0xC1, 0x07, 0xC0, 0x1F, 0x00, 0x00, 0xE0, 0x81, 0x0F, 0xE0, 0x1F, 0x00,
  0x00, 0xE0, 0x01, 0x3F, 0xC0, 0x1F, 0x00, 0x00, 0xE0, 0x01, 0x7E, 0xC0,
  0x1F, 0x00, 0x00, 0xE0, 0x01, 0xFC, 0xF3, 0x0F, 0x00, 0x00, 0xE0, 0x01,
  0xF8, 0xFF, 0x0F, 0x00, 0x00, 0xC0, 0x01, 0xF0, 0xFF, 0x0F, 0x00, 0x00,
  0x80, 0x01, 0xC0, 0xFF, 0x0F, 0x00, 0x00, 0x80, 0x01, 0x80, 0xFF, 0x0F,
  0x00, 0x00, 0x00, 0x00, 0x00, 0xFE, 0x01, 0x00, 0x00, 0x00, 0x00, 0x00,
  0x18, 0x00, 0x00, 0x00, 0x00, 0x00, 0x00, 0x00, 0x00, 0x00, 0x00, 0x00,
  0x00, 0x00, 0x00, 0x00, 0x00, 0x00, 0x00, 0x00, 0x00, 0x10, 0x00, 0x00,
  0x00, 0x80, 0x07, 0x00, 0x18, 0x00, 0x00, 0x00, 0x40, 0x0C, 0x00, 0x14,
  0x00, 0x00, 0x00, 0x00, 0x18, 0x00, 0x12, 0x00, 0x00, 0x00, 0x10, 0xD0,
  0x10, 0x11, 0x00, 0x00, 0x00, 0x00, 0x10, 0xC9, 0xFB, 0x00, 0x00, 0x00,
  0x00, 0x10, 0x07, 0x10, 0x00, 0x00, 0x00, 0x10, 0x10, 0x06, 0x10, 0x00,
  0x00, 0x00, 0x30, 0x00, 0x0D, 0x00, 0x00, 0x00, 0x00, 0x60, 0x88, 0x18,
  0x10, 0x00, 0x00, 0x00, 0xC0, 0x43, 0x30, 0x18, 0x00, 0x00, 0x00, 0x00,
  0x00, 0x00, 0x00, 0x00, 0x00, 0x00, 0x00, 0x00, 0x00, 0x00, 0x00, 0x00,
  0x00, 0x00, 0x00, 0x00, 0x00, 0x00, 0x00, 0x00, 0x00, 0x00, 0x00, 0x00,
  0x00, 0x00,
};
